X: 38963
T: Swaggering Jig, The
R: slip jig
M: 9/8
K: Gmajor
BGG AGE DEG|BAG DE/F/G A3|BGG AGE DEG|cBA BGE D3|
BGG AGE D3|BAG D3 A3|BGG AGE D3|cBA BGE D3||
Bdd dg/f/e dBG|Bdd dBG A3|Bdd dg/f/e dBG|cBA BGE D3|
Bdd dg/f/e dBG|D3 dBG A3|gfe fdB cBA|cBA BGE D3||

